X:4
T:Allan Dewar's Jig
R:Jig
C:Jerry Holland
O:20th Century Cape Beton
S:Tune of the Month. May,1998.
A:<http://www.capebretonet.com/Music/Holland>
N:Contacts ...
N:Bookings,Mechanicals etc.
N:..... Jerry Holland <jerry@cranfordpub.com>
N:Tune books, related recordings
N:..... Cranford Publications <http://www.cranfordpub.com>
B:Previously Unpublished.
D:Currently unrecorded.
H:Copyrights - Publisher:Fiddlesticks Music (SOCAN).
Z:This abc transcription is for personal use only
Z:provided this notice remains attached.
Z:Used by permission of the composer and publisher.
Z:Paul Stewart Cranford 
Q:300
L:1/8
M:6/8
K:C
|:a |ged cAG|Acc c2a|ged Acd|edd d2a|!
ged cAG|AcA GEC|DEF GAB|ced c2   :|!
|:e|gag gec|aba {b}age|gec dcd|eddd2a|!
gag gec|aba {b}age|gec dcd|ecc c2  :|!
